X:582
T:The battering ram
R:Jig
O:Ireland
D:Chieftains 1
D:Kevin Crawford: D flute album
B:Irish Traditional Music Session Tunes 2
S:Irish Traditional Music Session Tunes 2
Z:Transcription, chords:Mike Long
M:6/8
K:G
B|\
"G"dBG BAG|dBG G2B|dBG AGE|"D"GED D2B|\
"G"dBG BAG|(B/c/d)B BAG|"Am/C"AGA BAB|"D"GED D2:|
|:B|\
"G"deg aga|"C"bge edB|"G"deg aga|"D"bge ega|\
"G"bag "D"age|"C"ged (e/f/g)e|"G"dBG AGE|"D"GED D2:|
|:(e/d/)|\
"G"B2G A2G|B2D D2d|BAG AGE|"D"GED Ded|\
"G"B2G A2G|(B/c/d)B BAG|"Am/C"AGA BAB|"D"GED D2:|
